src/svgs/grid.svg

<svg xmlns="http://www.w3.org/2000/svg" viewBox="0 0 24 24" width="512" height="512" aria-labelledby="fagrid-desc fagrid-title"><title id="fagrid-title">Grid Icon</title><desc id="fagrid-desc">A picture depicting a square grid.</desc><path d="M20 2H4a2.015 2.015 0 00-2 2v16a2.015 2.015 0 002 2h16a2.015 2.015 0 002-2V4a2.015 2.015 0 00-2-2zM9 4h6v4H9zm0 6h6v4H9zm0 6h6v4H9zM4 4h3v4H4zm0 6h3v4H4zm0 10v-4h3v4zm16 0h-3v-4h3zm0-6h-3v-4h3zm0-6h-3V4h3z"/></svg>

<svg xmlns="http://www.w3.org/2000/svg" viewBox="0 0 24 24"><path d="M20,2H4A2.015,2.015,0,0,0,2,4V20a2.015,2.015,0,0,0,2,2H20a2.015,2.015,0,0,0,2-2V4A2.015,2.015,0,0,0,20,2ZM9,4h6V8H9Zm0,6h6v4H9Zm0,6h6v4H9ZM4,4H7V8H4Zm0,6H7v4H4ZM4,20V16H7v4Zm16,0H17V16h3Zm0-6H17V10h3Zm0-6H17V4h3Z"/></svg>
